X:10
T:Unknown Glasgow Polka 4
Z:robin.beech@mcgill.ca
S:Victoria Bar Session, Glasgow
R:polka
M:2/4
L:1/8
K:D
E>F AB | cec2 | BA cB | BA FA | E>F AB | ce c2 |BA cB |1 A2 A2 :|2 AB ce |:
a2f2 | ec e2 | A>B cB | BA FA | E>F AB | ce c2 |BA cB |1 AB ce :|2 A2 A2 |]
